Origami/48x48/apps/rocketchat.svg

<svg width="48" height="48" version="1.1" viewBox="0 0 48 48" xmlns="http://www.w3.org/2000/svg">
 <path d="m 3,5 c 1.6940773,2.3717081 2.9151927,6.941308 3.5742188,12.197266 A 21,14 0 0 0 3,25 21,14 0 0 0 6.7714844,32.974609 C 6.2201657,38.158168 5.0108032,42.654063 3,45 8.8929089,45 14.173722,42.435979 17.833984,38.380859 A 21,14 0 0 0 24,39 21,14 0 0 0 45,25 21,14 0 0 0 24,11 21,14 0 0 0 17.84375,11.628906 C 14.183166,7.5678332 8.8978714,5 3,5 Z" style="opacity:.2"/>
 <path d="m23 24c0 11.045695-8.954305 20-20 20 6-7 5-33 0-40 11.045695 0 20 8.9543045 20 20z" style="fill:#c1272d"/>
 <ellipse cx="24" cy="24" rx="21" ry="14" style="fill:#c1272d"/>
 <path d="m24 14.000219c-5.25855 0-9.971294 1.452868-13.185547 3.595703-3.21192 2.14128-4.8121316 4.750415-4.814453 7.398438 0.00698 1.935246 0.870228 3.924831 2.8457031 5.814453a3.0003 3.0003 0 0 1 0.9082031 2.484375c-0.2961905 2.784452-0.7207178 5.407211-1.4355468 7.757812 2.8148856-0.939377 5.3353586-2.515223 7.2890626-4.679687a3.0003 3.0003 0 0 1 2.830078 -0.929688c1.792836 0.367777 3.671449 0.557992 5.5625 0.558594 5.25855 0 9.971294-1.452868 13.185547-3.595703s4.814453-4.754294 4.814453-7.404297-1.6002-5.261462-4.814453-7.404297-7.926997-3.595703-13.185547-3.595703z" style="opacity:.2"/>
 <path d="m24 13c-5.25855 0-9.971294 1.452868-13.185547 3.595703-3.21192 2.14128-4.8121316 4.750415-4.814453 7.398438 0.00698 1.935246 0.870228 3.924831 2.8457031 5.814453a3.0003 3.0003 0 0 1 0.9082031 2.484375c-0.2961905 2.784452-0.7207178 5.407211-1.4355468 7.757812 2.8148856-0.939377 5.3353586-2.515223 7.2890626-4.679687a3.0003 3.0003 0 0 1 2.830078 -0.929688c1.792836 0.367777 3.671449 0.557992 5.5625 0.558594 5.25855 0 9.971294-1.452868 13.185547-3.595703s4.814453-4.754294 4.814453-7.404297-1.6002-5.261462-4.814453-7.404297-7.926997-3.595703-13.185547-3.595703z" style="fill:#ffffff"/>
 <g transform="translate(0,1)" style="opacity:.2">
  <circle cx="24" cy="24" r="3"/>
  <circle cx="32" cy="24" r="3"/>
  <circle cx="16" cy="24" r="3"/>
 </g>
 <g style="fill:#c1272d">
  <circle cx="24" cy="24" r="3" style="fill:#c1272d"/>
  <circle cx="32" cy="24" r="3" style="fill:#c1272d"/>
  <circle cx="16" cy="24" r="3" style="fill:#c1272d"/>
 </g>
 <path d="M 3,4 C 3.2167128,4.3033979 3.4259065,4.6454098 3.6269531,5.0175781 9.2708523,5.1930539 14.313848,7.7128125 17.84375,11.628906 A 21,14 0 0 1 24,11 21,14 0 0 1 44.96875,24.585938 21,14 0 0 0 45,24 21,14 0 0 0 24,10 21,14 0 0 0 17.84375,10.628906 C 14.183166,6.5678334 8.8978714,4 3,4 Z M 6.4511719,16.332031 A 21,14 0 0 0 3,24 21,14 0 0 0 3.037109,24.472656 21,14 0 0 1 6.5742184,17.197266 C 6.537389,16.903535 6.4914971,16.62121 6.4511719,16.332031 Z M 6.6601562,32.865234 C 6.068239,37.666124 4.8934874,41.790931 3,44 3.2483757,44 3.4941089,43.9895 3.7402344,43.98047 5.3122097,41.474979 6.2915318,37.487177 6.7714844,32.97461 A 21,14 0 0 1 6.6601562,32.865234 Z" style="fill:#ffffff;opacity:.2"/>
</svg>

<svg xmlns="http://www.w3.org/2000/svg" width="48" height="48" version="1.1" viewBox="0 0 48 48">
 <path style="opacity:0.2" d="m 3,5 c 1.6940773,2.3717081 2.9151927,6.941308 3.5742188,12.197266 A 21,14 0 0 0 3,25 21,14 0 0 0 6.7714844,32.974609 C 6.2201657,38.158168 5.0108032,42.654063 3,45 8.8929089,45 14.173722,42.435979 17.833984,38.380859 A 21,14 0 0 0 24,39 21,14 0 0 0 45,25 21,14 0 0 0 24,11 21,14 0 0 0 17.84375,11.628906 C 14.183166,7.5678332 8.8978714,5 3,5 Z"/>
 <path style="fill:#c1272d" d="M 23,24 C 23,35.045695 14.045695,44 3,44 9,37 8,11 3,4.0000005 14.045695,4.0000005 23,12.954305 23,24 Z"/>
 <ellipse style="fill:#c1272d" cx="24" cy="24" rx="21" ry="14"/>
 <path style="opacity:0.2" d="m 24,14.000219 c -5.25855,0 -9.971294,1.452868 -13.185547,3.595703 C 7.602533,19.737202 6.0023214,22.346337 6,24.99436 c 0.00698,1.935246 0.870228,3.924831 2.8457031,5.814453 a 3.0003,3.0003 0 0 1 0.9082031,2.484375 C 9.4577157,36.07764 9.0331884,38.700399 8.3183594,41.051 11.133245,40.111623 13.653718,38.535777 15.607422,36.371313 A 3.0003,3.0003 0 0 1 18.4375,35.441625 c 1.792836,0.367777 3.671449,0.557992 5.5625,0.558594 5.25855,0 9.971294,-1.452868 13.185547,-3.595703 C 40.3998,30.261681 42,27.650222 42,25.000219 42,22.350216 40.3998,19.738757 37.185547,17.595922 33.971294,15.453087 29.25855,14.000219 24,14.000219 Z"/>
 <path style="fill:#ffffff" d="M 24,13 C 18.74145,13 14.028706,14.452868 10.814453,16.595703 7.602533,18.736983 6.0023214,21.346118 6,23.994141 c 0.00698,1.935246 0.870228,3.924831 2.8457031,5.814453 a 3.0003,3.0003 0 0 1 0.9082031,2.484375 C 9.4577157,35.077421 9.0331884,37.70018 8.3183594,40.050781 11.133245,39.111404 13.653718,37.535558 15.607422,35.371094 A 3.0003,3.0003 0 0 1 18.4375,34.441406 C 20.230336,34.809183 22.108949,34.999398 24,35 29.25855,35 33.971294,33.547132 37.185547,31.404297 40.3998,29.261462 42,26.650003 42,24 42,21.349997 40.3998,18.738538 37.185547,16.595703 33.971294,14.452868 29.25855,13 24,13 Z"/>
 <g style="opacity:0.2" transform="translate(0,1)">
  <circle cx="24" cy="24" r="3"/>
  <circle cx="32" cy="24" r="3"/>
  <circle cx="16" cy="24" r="3"/>
 </g>
 <g style="fill:#c1272d">
  <circle style="fill:#c1272d" cx="24" cy="24" r="3"/>
  <circle style="fill:#c1272d" cx="32" cy="24" r="3"/>
  <circle style="fill:#c1272d" cx="16" cy="24" r="3"/>
 </g>
 <path style="opacity:0.2;fill:#ffffff" d="M 3,4 C 3.2167128,4.3033979 3.4259065,4.6454098 3.6269531,5.0175781 9.2708523,5.1930539 14.313848,7.7128125 17.84375,11.628906 A 21,14 0 0 1 24,11 21,14 0 0 1 44.96875,24.585938 21,14 0 0 0 45,24 21,14 0 0 0 24,10 21,14 0 0 0 17.84375,10.628906 C 14.183166,6.5678334 8.8978714,4 3,4 Z M 6.4511719,16.332031 A 21,14 0 0 0 3,24 21,14 0 0 0 3.037109,24.472656 21,14 0 0 1 6.5742184,17.197266 C 6.537389,16.903535 6.4914971,16.62121 6.4511719,16.332031 Z M 6.6601562,32.865234 C 6.068239,37.666124 4.8934874,41.790931 3,44 3.2483757,44 3.4941089,43.9895 3.7402344,43.98047 5.3122097,41.474979 6.2915318,37.487177 6.7714844,32.97461 A 21,14 0 0 1 6.6601562,32.865234 Z"/>
</svg>
